packages/foundations/assets/icons/functional/images/navigation/log_out.svg

<svg xmlns="http://www.w3.org/2000/svg" width="32" height="32" fill="none"><path fill="#1A1C1F" fill-rule="evenodd" d="M6.103 4.079c-1.133.247-2.041 1.178-2.289 2.349-.119.559-.119 18.585 0 19.144q.191.897.813 1.517c.439.436.831.666 1.376.805.391.1.596.106 3.646.106 2.02 0 3.304-.021 3.426-.055.234-.065.54-.386.631-.662.138-.419-.058-.91-.454-1.135l-.212-.12H9.936c-2.034-.001-3.197-.021-3.375-.059a.98.98 0 0 1-.697-.534c-.102-.2-.104-.378-.104-9.435 0-8.969.003-9.237.101-9.429.123-.239.3-.411.502-.487q.152-.057 3.238-.057c2.036 0 3.18-.02 3.359-.059.603-.129.948-.763.717-1.316a.98.98 0 0 0-.53-.551c-.201-.093-.413-.098-3.467-.096-2.486.003-3.33.02-3.577.074m14.724 5.01a1.1 1.1 0 0 0-.504.528c-.068.182-.074.623-.009.793.026.068 1.047 1.119 2.269 2.337l2.223 2.213-6.656.027-6.657.026-.24.142a.93.93 0 0 0-.48.841c0 .471.24.804.688.956.133.045 1.936.061 6.773.061h6.592l-2.194 2.2c-1.207 1.21-2.233 2.277-2.28 2.371-.105.21-.11.601-.012.831.089.208.326.438.53.515.21.079.595.071.798-.018.099-.043 1.512-1.419 3.328-3.24 2.702-2.711 3.163-3.196 3.213-3.379.072-.268.072-.311-.004-.58-.054-.189-.5-.658-3.187-3.354q-3.124-3.135-3.342-3.24c-.248-.121-.616-.134-.849-.03"/></svg>

<svg width="32" height="32" viewBox="0 0 32 32" fill="none" xmlns="http://www.w3.org/2000/svg"><path d="M6.103 4.079 C 4.970 4.326,4.062 5.257,3.814 6.428 C 3.695 6.987,3.695 25.013,3.814 25.572 C 3.941 26.169,4.213 26.677,4.627 27.089 C 5.066 27.525,5.458 27.755,6.003 27.894 C 6.394 27.994,6.599 28.000,9.649 28.000 C 11.669 28.000,12.953 27.979,13.075 27.945 C 13.309 27.880,13.615 27.559,13.706 27.283 C 13.844 26.864,13.648 26.373,13.252 26.148 L 13.040 26.028 9.936 26.028 C 7.902 26.027,6.739 26.007,6.561 25.969 C 6.244 25.901,6.010 25.722,5.864 25.435 C 5.762 25.235,5.760 25.057,5.760 16.000 C 5.760 7.031,5.763 6.763,5.861 6.571 C 5.984 6.332,6.161 6.160,6.363 6.084 C 6.464 6.046,7.544 6.027,9.601 6.027 C 11.637 6.027,12.781 6.007,12.960 5.968 C 13.563 5.839,13.908 5.205,13.677 4.652 C 13.567 4.389,13.405 4.220,13.147 4.101 C 12.946 4.008,12.734 4.003,9.680 4.005 C 7.194 4.008,6.350 4.025,6.103 4.079 M20.827 9.089 C 20.628 9.178,20.398 9.418,20.323 9.617 C 20.255 9.799,20.249 10.240,20.314 10.410 C 20.340 10.478,21.361 11.529,22.583 12.747 L 24.806 14.960 18.150 14.987 L 11.493 15.013 11.253 15.155 C 10.939 15.339,10.773 15.630,10.773 15.996 C 10.773 16.467,11.013 16.800,11.461 16.952 C 11.594 16.997,13.397 17.013,18.234 17.013 L 24.826 17.013 22.632 19.213 C 21.425 20.423,20.399 21.490,20.352 21.584 C 20.247 21.794,20.242 22.185,20.340 22.415 C 20.429 22.623,20.666 22.853,20.870 22.930 C 21.080 23.009,21.465 23.001,21.668 22.912 C 21.767 22.869,23.180 21.493,24.996 19.672 C 27.698 16.961,28.159 16.476,28.209 16.293 C 28.281 16.025,28.281 15.982,28.205 15.713 C 28.151 15.524,27.705 15.055,25.018 12.359 C 22.935 10.269,21.821 9.189,21.676 9.119 C 21.428 8.998,21.060 8.985,20.827 9.089 " fill="#1A1C1F" stroke="none" fill-rule="evenodd"></path></svg>
